static/logo.svg

<svg xmlns="http://www.w3.org/2000/svg" xmlns:xlink="http://www.w3.org/1999/xlink" width="33.05" height="48.343" viewBox="0 0 33.05 48.343"><defs><clipPath id="a"><path d="M304.121,762.75c8.424,2.491,15.23-2.645,15.23,5.879a15.444,15.444,0,0,1-30.889,0C288.462,760.1,295.947,760.333,304.121,762.75Z" transform="translate(-288.462 -761.296)" clip-rule="evenodd"/></clipPath></defs><g transform="translate(-288.38 -36.11)"><path d="M304.121,762.75c8.424,2.491,15.23-2.645,15.23,5.879a15.444,15.444,0,0,1-30.889,0C288.462,760.1,295.947,760.333,304.121,762.75Z" transform="translate(-0.079 -700.137)" fill="#9cd919" fill-rule="evenodd"/><g transform="translate(288.383 61.159)" clip-path="url(#a)"><g transform="translate(4.785 3.496)"><ellipse cx="1.377" cy="1.284" rx="1.377" ry="1.284" transform="translate(1.177)" fill="#fff"/><ellipse cx="0.729" cy="0.68" rx="0.729" ry="0.68" transform="translate(3.202 5.815)" fill="#fff"/><ellipse cx="0.729" cy="0.68" rx="0.729" ry="0.68" transform="translate(0.448 5.815)" fill="#fff"/><ellipse cx="0.588" cy="0.549" rx="0.588" ry="0.549" transform="translate(1.965 3.696)" fill="#fff"/><ellipse cx="0.588" cy="0.549" rx="0.588" ry="0.549" transform="translate(0 2.599)" fill="#fff"/></g></g><path d="M293.3,57.3a15.824,15.824,0,0,0-3.427,4.615,14.469,14.469,0,0,0-1.473,5.64,15.586,15.586,0,0,0,.342,4.035,16.964,16.964,0,0,0,1.336,3.851,16.554,16.554,0,0,0,1.951,3.087,15.612,15.612,0,0,0,2.63,2.592,16.068,16.068,0,0,0,15.276,2.36,17.482,17.482,0,0,0,2.964-1.42,18.633,18.633,0,0,0,4.951-4.325,17.147,17.147,0,0,0,1.832-2.817,16.541,16.541,0,0,0,1.727-8.488,19.767,19.767,0,0,0-2.359-8.315,16.893,16.893,0,0,0-2.861-3.861,13.951,13.951,0,0,0-2.363-1.918l.453-15.805h-3.285l-11.742-.425v7.42l8.58-.31.387,10.71v1.839l1.694.716a8.786,8.786,0,0,1,2.674,1.6,11.775,11.775,0,0,1,2.183,2.54,15.053,15.053,0,0,1,2.251,6.185,12.432,12.432,0,0,1-.814,6.459,13.406,13.406,0,0,1-1.269,2.3,14.956,14.956,0,0,1-1.709,2.063,15.263,15.263,0,0,1-2.065,1.746,14.394,14.394,0,0,1-2.349,1.344,13.272,13.272,0,0,1-6.592,1.106,13.73,13.73,0,0,1-8.943-4.371,15.027,15.027,0,0,1-1.969-2.667,15.709,15.709,0,0,1-1.491-3.467,14.618,14.618,0,0,1-.592-3.751,13.834,13.834,0,0,1,1.022-5.482,15.6,15.6,0,0,1,3.05-4.782l0,0Z" fill="#252525" fill-rule="evenodd"/></g></svg>

<?xml version="1.0" encoding="UTF-8" standalone="no"?>
<!DOCTYPE svg PUBLIC "-//W3C//DTD SVG 1.1//EN" "http://www.w3.org/Graphics/SVG/1.1/DTD/svg11.dtd">
<svg width="100%" height="100%" viewBox="0 0 60 60" version="1.1" xmlns="http://www.w3.org/2000/svg" xmlns:xlink="http://www.w3.org/1999/xlink" xml:space="preserve" xmlns:serif="http://www.serif.com/" style="fill-rule:evenodd;clip-rule:evenodd;stroke-linejoin:round;stroke-miterlimit:2;">
    <g transform="matrix(1,0,0,1,-100,-20)">
        <g transform="matrix(1.25,0,0,1.25,-33.756172,-54.385954)">
            <rect x="107.005" y="59.509" width="48" height="48" style="fill:rgb(1,89,59);"/>
        </g>
        <g transform="matrix(1,0,0,1,-150,-50.400866)">
            <g transform="matrix(1,0,0,1,-24.992034,-660.011351)">
                <path d="M304.121,762.75C312.545,765.241 319.351,760.105 319.351,768.629C319.351,777.102 312.379,784.073 303.906,784.073C295.434,784.073 288.462,777.102 288.462,768.629C288.462,760.1 295.947,760.333 304.121,762.75Z" style="fill:rgb(178,220,196);"/>
            </g>
            <g transform="matrix(1,0,0,1,-24.913034,40.125649)">
                <path d="M293.3,57.3C291.886,58.616 290.724,60.18 289.873,61.915C289.004,63.676 288.503,65.595 288.4,67.555C288.338,68.909 288.453,70.266 288.742,71.59C289.031,72.923 289.48,74.216 290.078,75.441C290.612,76.539 291.267,77.574 292.029,78.528C292.8,79.493 293.683,80.363 294.659,81.12C299.009,84.462 304.78,85.353 309.935,83.48C310.965,83.101 311.958,82.625 312.899,82.06C314.793,80.923 316.469,79.459 317.85,77.735C318.551,76.858 319.165,75.915 319.682,74.918C321.001,72.293 321.597,69.362 321.409,66.43C321.246,63.518 320.44,60.679 319.05,58.115C318.285,56.698 317.322,55.398 316.189,54.254C315.474,53.53 314.681,52.887 313.826,52.336L314.279,36.531L310.994,36.531L299.252,36.106L299.252,43.526L307.832,43.216L308.219,53.926L308.219,55.765L309.913,56.481C310.893,56.851 311.798,57.393 312.587,58.081C313.432,58.819 314.167,59.675 314.77,60.621C315.967,62.491 316.736,64.604 317.021,66.806C317.328,68.993 317.047,71.223 316.207,73.265C315.86,74.071 315.435,74.842 314.938,75.565C314.431,76.302 313.859,76.993 313.229,77.628C312.594,78.27 311.903,78.854 311.164,79.374C310.425,79.895 309.638,80.345 308.815,80.718C306.748,81.643 304.479,82.024 302.223,81.824C298.801,81.537 295.609,79.977 293.28,77.453C292.527,76.639 291.867,75.745 291.311,74.786C290.676,73.694 290.176,72.53 289.82,71.319C289.46,70.1 289.261,68.839 289.228,67.568C289.193,65.69 289.541,63.825 290.25,62.086C290.966,60.319 292,58.698 293.3,57.304L293.3,57.3Z" style="fill:rgb(178,220,196);"/>
            </g>
        </g>
    </g>
</svg>
